Numix-Light/scalable/places/folder-pictures-symbolic.svg

<svg xmlns="http://www.w3.org/2000/svg" viewBox="0 0 16 16">
 <g style="fill:#353535">
  <g transform="translate(0,-1036.3622)" style="fill-rule:evenodd">
   <path d="m 0.045 1046.8 c 0.229 -0.168 0.76 -0.668 1.63 -1.533 0.867 -0.87 2.027 -2.06 3.529 -3.624 0.983 1.398 1.706 2.406 2.241 3.069 0.522 0.655 0.812 0.942 0.882 0.862 0.555 -0.497 1.023 -0.92 1.426 -1.29 0.397 -0.37 0.705 -0.674 0.949 -0.922 1.221 1.536 2.235 2.801 3.123 3.87 0.873 1.061 1.566 1.864 2.103 2.455 l -3.324 -2.762 c -0.275 0.707 -0.723 1.072 -1.358 1.105 -0.653 0.019 -1.645 -0.773 -2.445 -0.92 -0.8 -0.146 -1.597 0.304 -2.308 0.061 -0.727 -0.257 -1.288 -1.273 -1.969 -1.536 -0.684 -0.26 -1.377 -0.26 -2.103 0 -0.791 0.387 -1.581 0.776 -2.375 1.166 z"/>
   <path d="m 0 1046.36 5 -5 3.282 3.678 2.218 -2.178 5.5 6.5 -3 2 -11 0 z"/>
  </g>
 </g>
 <path d="M 2 0 C 0.892 0 0 0.892 0 2 L 0 14 C 0 15.108 0.892 16 2 16 L 14 16 C 15.108 16 16 15.108 16 14 L 16 2 C 16 0.892 15.108 0 14 0 L 2 0 z M 2 2 L 14 2 L 14 14 L 2 14 L 2 2 z " style="fill:#353535;fill-opacity:1"/>
</svg>

<svg version="1.1" viewBox="0 0 16 16" xmlns="http://www.w3.org/2000/svg">
 <path d="m2 0c-1.11 0-2 0.892-2 2v12c0 1.11 0.892 2 2 2h12c1.11 0 2-0.892 2-2v-12c0-1.11-0.892-2-2-2zm0 2h12v8.63l-3.5-4.14-2.22 2.18-3.28-3.68-3 3z" style="fill:#353535"/>
</svg>
